src/images_karasa_jaga_svg/cmd/32/symbolshapes.forbidden.svg

<svg height="32" viewBox="0 0 32 32" width="32" xmlns="http://www.w3.org/2000/svg" xmlns:xlink="http://www.w3.org/1999/xlink"><linearGradient id="a" gradientUnits="userSpaceOnUse" x1="62.479958" x2="59.39616" y1="128" y2="0"><stop offset="0" stop-color="#fff"/><stop offset=".53340602" stop-color="#fff"/><stop offset=".83333331" stop-color="#f1f1f1"/><stop offset=".89999998" stop-color="#eaeaea"/><stop offset="1" stop-color="#dfdfdf"/></linearGradient><path d="m64 10.589844a53.410645 53.410645 0 0 0 -53.410156 53.410156 53.410645 53.410645 0 0 0 53.410156 53.41016 53.410645 53.410645 0 0 0 53.41016-53.41016 53.410645 53.410645 0 0 0 -53.41016-53.410156zm0 17.103515a36.306656 36.306656 0 0 1 36.30664 36.306641 36.306656 36.306656 0 0 1 -5.220702 18.671875l-49.761719-49.761719a36.306656 36.306656 0 0 1 18.675781-5.216797zm-31.085938 17.634766 49.761719 49.761719a36.306656 36.306656 0 0 1 -18.675781 5.216796 36.306656 36.306656 0 0 1 -36.306641-36.30664 36.306656 36.306656 0 0 1 5.220703-18.671875z" style="stroke:#507dbe;stroke-width:4;stroke-linecap:square;stroke-linejoin:bevel;stroke-opacity:.729412;fill:url(#a)" transform="scale(.25)"/></svg>

<?xml version="1.0" encoding="UTF-8" standalone="no"?>
<!-- Created with Inkscape (http://www.inkscape.org/) -->

<svg
   xmlns:dc="http://purl.org/dc/elements/1.1/"
   xmlns:cc="http://creativecommons.org/ns#"
   xmlns:rdf="http://www.w3.org/1999/02/22-rdf-syntax-ns#"
   xmlns:svg="http://www.w3.org/2000/svg"
   xmlns="http://www.w3.org/2000/svg"
   xmlns:xlink="http://www.w3.org/1999/xlink"
   xmlns:sodipodi="http://sodipodi.sourceforge.net/DTD/sodipodi-0.dtd"
   xmlns:inkscape="http://www.inkscape.org/namespaces/inkscape"
   version="1.1"
   id="svg2"
   width="128"
   height="128"
   viewBox="0 0 128 128"
   sodipodi:docname="symbolshapes.forbidden.svg"
   inkscape:export-filename="/home/rizmut/Dokumen/Rizmut/Github/libreoffice-style-karasa-jaga/build/images_karasa_jaga/cmd/32/symbolshapes.forbidden.png"
   inkscape:export-xdpi="24"
   inkscape:export-ydpi="24"
   inkscape:version="0.92.3 (unknown)">
  <metadata
     id="metadata8">
    <rdf:RDF>
      <cc:Work
         rdf:about="">
        <dc:format>image/svg+xml</dc:format>
        <dc:type
           rdf:resource="http://purl.org/dc/dcmitype/StillImage" />
        <dc:title />
      </cc:Work>
    </rdf:RDF>
  </metadata>
  <defs
     id="defs6">
    <linearGradient
       inkscape:collect="always"
       xlink:href="#linearGradient3369"
       id="linearGradient2911"
       x1="62.479958"
       y1="128"
       x2="59.39616"
       y2="0"
       gradientUnits="userSpaceOnUse" />
    <linearGradient
       id="linearGradient3369">
      <stop
         id="stop3372"
         offset="0"
         style="stop-color:#ffffff;stop-opacity:1;" />
      <stop
         style="stop-color:#ffffff;stop-opacity:1;"
         offset="0.53340602"
         id="stop3374" />
      <stop
         style="stop-color:#f1f1f1;stop-opacity:1;"
         offset="0.83333331"
         id="stop3376" />
      <stop
         id="stop3378"
         offset="0.89999998"
         style="stop-color:#eaeaea;stop-opacity:1;" />
      <stop
         id="stop3384"
         offset="1"
         style="stop-color:#dfdfdf;stop-opacity:1;" />
    </linearGradient>
  </defs>
  <sodipodi:namedview
     pagecolor="#ffffff"
     bordercolor="#666666"
     borderopacity="1"
     objecttolerance="10"
     gridtolerance="10"
     guidetolerance="10"
     inkscape:pageopacity="0"
     inkscape:pageshadow="2"
     inkscape:window-width="1366"
     inkscape:window-height="706"
     id="namedview4"
     showgrid="false"
     inkscape:snap-page="true"
     inkscape:snap-global="true"
     inkscape:zoom="2.4494288"
     inkscape:cx="-6.172304"
     inkscape:cy="63.164436"
     inkscape:window-x="0"
     inkscape:window-y="0"
     inkscape:window-maximized="1"
     inkscape:current-layer="svg2">
    <inkscape:grid
       type="xygrid"
       id="grid837" />
  </sodipodi:namedview>
  <path
     style="opacity:1;fill:url(#linearGradient2911);fill-opacity:1;stroke:#507dbe;stroke-width:4;stroke-linecap:square;stroke-linejoin:bevel;stroke-miterlimit:4;stroke-dasharray:none;stroke-dashoffset:0;stroke-opacity:0.72941176"
     d="M 64 10.589844 A 53.410645 53.410645 0 0 0 10.589844 64 A 53.410645 53.410645 0 0 0 64 117.41016 A 53.410645 53.410645 0 0 0 117.41016 64 A 53.410645 53.410645 0 0 0 64 10.589844 z M 64 27.693359 A 36.306656 36.306656 0 0 1 100.30664 64 A 36.306656 36.306656 0 0 1 95.085938 82.671875 L 45.324219 32.910156 A 36.306656 36.306656 0 0 1 64 27.693359 z M 32.914062 45.328125 L 82.675781 95.089844 A 36.306656 36.306656 0 0 1 64 100.30664 A 36.306656 36.306656 0 0 1 27.693359 64 A 36.306656 36.306656 0 0 1 32.914062 45.328125 z "
     id="path2308" />
</svg>
